X:1
T:Flower of Scotland - Slow March  "CYMRU"
M:6/8
L:1/8
Q:80
C:R. Williamson - arr. P/M J.G. Slattery
S:
K:HP
|: f | \
{g}f2e{Gdc}d3 | \
{e}A3-A2{g}A | \
{Gdc}d2f{gef}e3 |
{A}e2d{g}d2e | | \
{gfg}f3-f2{e}f | \
g{a}fg{ag}a3 |
{Gdc}d2{e}A{gef}e2{A}e | \
{g}ede{g}f2g | | \
{afg}f2e{Gdc}d3 |
{e}A3-A2f | \
g{a}fg{ag}a3 | \
{Gdc}d3d2f| |
{gf}gfe{gfg}f2e | \
{Gdc}d3-d2{c}d | \
{g}c2e{Gdc}d3 |
-d3{gdc}d2 :|
